places/symbolic/folder-virtualbox-symbolic.svg

<svg height="24" viewBox="0 0 24 24" width="24" xmlns="http://www.w3.org/2000/svg">
  <path d="m22.999999 11.992036v-10.9920119h-10.992015-10.9920156l-.012838 10.9426099c-.00689 6.018437-.00204 10.970448.010969 11.004471.018742.04936 2.2456692.05935 11.0046806.04941l10.981168-.01257zm-20.3272447 9.192207c-.071198-.133037-.071261-10.791507 0-10.924535.048494-.09062.1158722-.09554 1.3031081-.09554.9432077 0 1.2637369.01524 1.2996711.06176.026243.03397.708574 2.218162 1.5163136 4.853776.8077444 2.635611 1.4841279 4.807985 1.5030714 4.827499.018962.01952.6430013-2.314748 1.3867925-5.187242.743788-2.872496 1.37086-5.2727394 1.393499-5.3338734.02266-.06113.07402-.111163.114181-.111163.07222 0 .165498.273972 1.537405 4.5154784.268216.829243.444139 1.30298.467816 1.25976.02086-.03811.52076-1.436482 1.110868-3.107513.590106-1.671031 1.103637-3.0706344 1.141177-3.1102274.04321-.04557.08508-.05464.114054-.02469.02519.02601.48384 1.4144944 1.019212 3.0855274s.993519 3.076873 1.018107 3.12409c.04103.07878.193837.08692 1.858826.09881l1.8141.01273v3.062942 3.062946l-9.273478.01257c-9.1287845.01241-9.2742769.011-9.3246872-.08321zm5.3586078-6.783843c-.011587-.033963-.3977387-1.306693-.8577804-2.828285l-.8364556-2.7665264-1.8098446-.012886-1.8098431-.012885-.0490882-.129109c-.031067-.08171-.044126-1.19732-.035591-3.0394528.011597-2.5232494.023331-2.9165676.087593-2.9571653.091053-.05753 18.4232328-.064947 18.5137308-.00754.0492.03124.05938 1.1730435.04941 5.5446531l-.01273 5.5053064-1.290091.01304c-.99457.01021-1.301459-.0011-1.339855-.04939-.04059-.05096-1.746977-5.2084184-2.831891-8.5591758-.1386-.4280074-.270172-.7588489-.292424-.7352068-.02225.02365-.523802 1.4102014-1.114559 3.0812342-.59076 1.671033-1.09877 3.0541114-1.12891 3.0735094-.03014.01941-.08064.0083-.112271-.02469-.0316-.03297-.518399-1.4049424-1.08177-3.0488024-1.169909-3.4137206-1.105473-3.2309183-1.129931-3.2056498-.01018.010686-.62259 2.2970848-1.3608095 5.0811708-.7382182 2.7840844-1.3530158 5.0794374-1.3662111 5.1007874-.037658.06094-.1672029.04538-.1908015-.02293z" fill="#bebebe" stroke-width=".049402" />
</svg>

<?xml version="1.0" encoding="UTF-8" standalone="no"?>
<svg
   xmlns:dc="http://purl.org/dc/elements/1.1/"
   xmlns:cc="http://creativecommons.org/ns#"
   xmlns:rdf="http://www.w3.org/1999/02/22-rdf-syntax-ns#"
   xmlns:svg="http://www.w3.org/2000/svg"
   xmlns="http://www.w3.org/2000/svg"
   xmlns:sodipodi="http://sodipodi.sourceforge.net/DTD/sodipodi-0.dtd"
   xmlns:inkscape="http://www.inkscape.org/namespaces/inkscape"
   viewBox="0 0 24 24"
   version="1.1"
   id="svg6"
   sodipodi:docname="folder-virtualbox-symbolic.svg"
   inkscape:version="0.92.4 (5da689c313, 2019-01-14)"
   width="24"
   height="24">
  <metadata
     id="metadata10">
    <rdf:RDF>
      <cc:Work
         rdf:about="">
        <dc:format>image/svg+xml</dc:format>
        <dc:type
           rdf:resource="http://purl.org/dc/dcmitype/StillImage" />
        <dc:title></dc:title>
      </cc:Work>
    </rdf:RDF>
  </metadata>
  <sodipodi:namedview
     pagecolor="#ffffff"
     bordercolor="#666666"
     borderopacity="1"
     objecttolerance="10"
     gridtolerance="10"
     guidetolerance="10"
     inkscape:pageopacity="0"
     inkscape:pageshadow="2"
     inkscape:window-width="1920"
     inkscape:window-height="1022"
     id="namedview8"
     showgrid="false"
     inkscape:zoom="14.75"
     inkscape:cx="-5.6949153"
     inkscape:cy="8"
     inkscape:window-x="0"
     inkscape:window-y="32"
     inkscape:window-maximized="1"
     inkscape:current-layer="svg6" />
  <defs
     id="defs3051">
    <style
       type="text/css"
       id="current-color-scheme">
      .ColorScheme-Text {
        color:#4d4d4d;
      }
      </style>
  </defs>
  <path
     inkscape:connector-curvature="0"
     id="path537"
     d="M 22.999999,11.992036 V 1.0000241 H 12.007984 1.0159684 L 1.0031304,11.942634 c -0.00689,6.018437 -0.00204,10.970448 0.010969,11.004471 0.018742,0.04936 2.2456692,0.05935 11.0046806,0.04941 l 10.981168,-0.01257 z M 2.6727543,21.184243 c -0.071198,-0.133037 -0.071261,-10.791507 0,-10.924535 0.048494,-0.09062 0.1158722,-0.09554 1.3031081,-0.09554 0.9432077,0 1.2637369,0.01524 1.2996711,0.06176 0.026243,0.03397 0.708574,2.218162 1.5163136,4.853776 0.8077444,2.635611 1.4841279,4.807985 1.5030714,4.827499 0.018962,0.01952 0.6430013,-2.314748 1.3867925,-5.187242 0.743788,-2.872496 1.37086,-5.2727394 1.393499,-5.3338734 0.02266,-0.06113 0.07402,-0.111163 0.114181,-0.111163 0.07222,0 0.165498,0.273972 1.537405,4.5154784 0.268216,0.829243 0.444139,1.30298 0.467816,1.25976 0.02086,-0.03811 0.52076,-1.436482 1.110868,-3.107513 0.590106,-1.671031 1.103637,-3.0706344 1.141177,-3.1102274 0.04321,-0.04557 0.08508,-0.05464 0.114054,-0.02469 0.02519,0.02601 0.48384,1.4144944 1.019212,3.0855274 0.535372,1.671033 0.993519,3.076873 1.018107,3.12409 0.04103,0.07878 0.193837,0.08692 1.858826,0.09881 l 1.8141,0.01273 v 3.062942 3.062946 l -9.273478,0.01257 c -9.1287845,0.01241 -9.2742769,0.011 -9.3246872,-0.08321 z M 8.0313621,14.4004 C 8.0197751,14.366437 7.6336234,13.093707 7.1735817,11.572115 L 6.3371261,8.8055886 4.5272815,8.7927026 2.7174384,8.7798176 2.6683502,8.6507086 c -0.031067,-0.08171 -0.044126,-1.19732 -0.035591,-3.0394528 0.011597,-2.5232494 0.023331,-2.9165676 0.087593,-2.9571653 0.091053,-0.05753 18.4232328,-0.064947 18.5137308,-0.00754 0.0492,0.03124 0.05938,1.1730435 0.04941,5.5446531 l -0.01273,5.5053064 -1.290091,0.01304 c -0.99457,0.01021 -1.301459,-0.0011 -1.339855,-0.04939 -0.04059,-0.05096 -1.746977,-5.2084184 -2.831891,-8.5591758 -0.1386,-0.4280074 -0.270172,-0.7588489 -0.292424,-0.7352068 -0.02225,0.02365 -0.523802,1.4102014 -1.114559,3.0812342 -0.59076,1.671033 -1.09877,3.0541114 -1.12891,3.0735094 -0.03014,0.01941 -0.08064,0.0083 -0.112271,-0.02469 -0.0316,-0.03297 -0.518399,-1.4049424 -1.08177,-3.0488024 C 10.909083,4.033308 10.973519,4.2161103 10.949061,4.2413788 10.938881,4.2520648 10.326471,6.5384636 9.5882515,9.3225496 8.8500333,12.106634 8.2352357,14.401987 8.2220404,14.423337 c -0.037658,0.06094 -0.1672029,0.04538 -0.1908015,-0.02293 z"
     style="fill:#bebebe;stroke-width:0.0494023"
     sodipodi:nodetypes="ccccscsccccscsccssscsccscscccscccccccccccscscscsscccscc" />
</svg>
